X: 399
T: Poloxia
O: Romania
S: Ansamblul Folcloric Junii Sibiului Romania
M: 2/4
L: 1/8
Q: 1/4=220
P:ABA
K: Am
%%MIDI program 110
%%MIDI bassprog 105
%%MIDI gchord zf
P:A
|:"a"Bcdc|"e"B3A |"a"Bcdc  |"e"B3A  |\
  "a"Bcdc|"a"B2A2|Bcde     |ecA2    |
  Bcdc   |B3A    |Bcdc     |B3A     |\
  Bcdc   |B3A    |A2E2     |A2z2    :|
P:B
|:"c"cdef|"g"gage|"c"g2e2  |"f"^f4  |\
  "g"gage|"c"gage|e^fga    |ag^f2   |
  "c"cdef|"g"gage|"c"g2e2  |"^f"^f4 |\
  "g"gage|"g"gage|"c".g2.e2|"c"c2z2 :|



